app/dist/common/images/trex-company.svg

<svg height="18" width="18" xmlns="http://www.w3.org/2000/svg"><path d="m0 0h18v18h-18z" fill="#f0f3fa"/><g fill="#575759"><path d="m8.474 6.789-.494-.573h-3.473l.574.573zm.493.572h-3.312l.575.573h4.918v.572h-4.344l.23.23 1.887 1.488h3.545l-.583-.573h-4.85v-.571h4.267l-.35-.344-1.983-1.374zm1.057 4.007-.513-.572h3.537l.583.572zm.514.845.693.773h3.769l-.787-.773zm-3.57-7.17.518.601h-3.553l-.603-.601z"/><path d="m14.769 5h-3.95l-3.21 3.148-4.609 4.852h3.95l3.457-3.707z"/></g></svg>

<!-- by TradingView --><svg width="18" height="18" xmlns="http://www.w3.org/2000/svg"><path fill="#F0F3FA" d="M0 0h18v18H0z"/><path d="M8.474 6.789l-.494-.573H4.507l.574.573h3.393zM8.967 7.361H5.655l.575.573h4.918v.572H6.804l.23.23 1.887 1.488h3.545l-.583-.573h-4.85V9.08H11.3l-.35-.344-1.983-1.374zM10.024 11.368l-.513-.572h3.537l.583.572h-3.607zM10.538 12.213l.693.773H15l-.787-.773h-3.675zM6.968 5.043l.518.601H3.933l-.603-.601h3.638z" fill="#575759"/><path d="M14.769 5h-3.95l-3.21 3.148L3 13h3.95l3.457-3.707L14.769 5z" fill="#575759"/></svg>
